src/assets/emailLogo.svg

<?xml version="1.0" encoding="UTF-8"?>
<svg enable-background="new 0 0 512 512" version="1.1" viewBox="0 0 512 512" xml:space="preserve" xmlns="http://www.w3.org/2000/svg">
		<path d="m464 64h-416c-26.496 0-48 21.504-48 48v288c0 26.496 21.504 48 48 48h416c26.496 0 48-21.504 48-48v-288c0-26.496-21.504-48-48-48zm-56.512 32-151.49 119.62-151.49-119.62h302.98zm40.512 320h-384v-267.33l192 147.68 192-147.71v267.36z"/>
</svg>

<?xml version="1.0" encoding="iso-8859-1"?>
<!-- Generator: Adobe Illustrator 19.0.0, SVG Export Plug-In . SVG Version: 6.00 Build 0)  -->
<svg version="1.1" id="Capa_1" xmlns="http://www.w3.org/2000/svg" xmlns:xlink="http://www.w3.org/1999/xlink" x="0px" y="0px"
	 viewBox="0 0 512 512" style="enable-background:new 0 0 512 512;" xml:space="preserve">
<g>
	<g>
		<path d="M464,64h-16H64H48C21.504,64,0,85.504,0,112v16v256v16c0,26.496,21.504,48,48,48h16h384h16c26.496,0,48-21.504,48-48v-16
			V128v-16C512,85.504,490.496,64,464,64z M407.488,96L256,215.616L104.512,96H407.488z M448,416H64V148.672l192,147.68L448,148.64
			V416z"/>
	</g>
</g>
<g>
</g>
<g>
</g>
<g>
</g>
<g>
</g>
<g>
</g>
<g>
</g>
<g>
</g>
<g>
</g>
<g>
</g>
<g>
</g>
<g>
</g>
<g>
</g>
<g>
</g>
<g>
</g>
<g>
</g>
</svg>
